X:114
T:Haste To The Wedding
R:jig
S:https://thesession.org/tunes/582
M:6/8
L:1/8
Z:Jeremy
K:Dmajor
|:AFA Agf|ede fdB|AFA dAF|EFE EFG|
AFA Agf|ede fdB|A2g faf|ded d3:|
|:afa afa|bgb bgb|afa agf|ede efg|
a3 f3|ede fdB|A2g faf|ded d3:|

